actions/16/feed-subscribe.svg

<svg xmlns="http://www.w3.org/2000/svg" viewBox="0 0 16 16">
  <defs id="defs3051">
    <style type="text/css" id="current-color-scheme">
      .ColorScheme-Text {
        color:#808080;
      }
      </style>
  </defs>
 <path style="fill:currentColor;fill-opacity:1;stroke:none" 
     d="m2 2v2c5.523 0 10 4.477 10 10h2c0-6.627-5.373-12-12-12m0 4v2c3.314 0 6 2.686 6 6h2c0-4.418-3.582-8-8-8m1.5 5c-.828 0-1.5.672-1.5 1.5 0 .828.672 1.5 1.5 1.5.828 0 1.5-.672 1.5-1.5 0-.828-.672-1.5-1.5-1.5"
     class="ColorScheme-Text"
     />
</svg>

<svg xmlns="http://www.w3.org/2000/svg" version="1.1" viewBox="0 0 16 16">
 <defs>
  <style id="current-color-scheme" type="text/css">
   .ColorScheme-Text { color:#808080; }
  </style>
 </defs>
 <path class="ColorScheme-Text" d="M 2,2 V 4 C 7.523,4 12,8.477 12,14 H 14 C 14,7.373 8.627,2 2,2 M 2,6 V 8 C 5.314,8 8,10.686 8,14 H 10 C 10,9.582 6.418,6 2,6 M 3.5,11 C 2.672,11 2,11.672 2,12.5 2,13.328 2.672,14 3.5,14 4.328,14 5,13.328 5,12.5 5,11.672 4.328,11 3.5,11" style="color:#808080;fill:currentColor"/>
</svg>
